X: 513
T: Darling Nellie Gray
C:Benjamin Hanby, 1856
B: jims roots
M:2/4
L:1/8
Q: 1/4=100
K:Dmaj
V:1 
xA, DF || "D"A2 AB "D7"AFED | "G"GABc d2 cB | "D"A2 AA BAFD | "A7"E2 EF EA,DF |
"D"A2 AB "D7"AFED | "G"GABc d2 cB | "D"A2 FG "A7"AGEC | "D"D2 DE D |]
|:D EF|"G"G2 GG G2 AG | "D"GFFE F2 DF | A2 AA BAFD | "A7"E2 EF EA,DF |
"D"A2 AB "D7"AFED |"G"GABc d2 cB |"D"A2 FG "A7"AGEC| "D"D2 DE D |]
% abcbook-tune_id 6298c245c466536962000cc5


% abcbook-boost 0
% abcbook-tablature 
% abcbook-transpose 
% abcbook-lastupdated 1654178373949
% abcbook-soundfonts 
% abcbook-repeats 1
% <a href="http://thesession.org/tunes/13413#setting23611" rel="nofollow">http://thesession.org/tunes/13413#setting23611</a>

